X:1
T:The Shaking of the Sheets
M:6/8
L:1/8
K:G
 A/2A/2| B2 G d2 B| G2 DG B2| A2 c B3/2- A/2 G| G3/2- F/2 G A2 A/2A/2|\
 B2 G d2 B| G2 DG B2| A2 c B3/2- A/2 G|F-A B c2 d| e2 c d2 c| B3/2- A/2 G A2 D|\
 G2 F GGD| B3/2- A/2 G A2 A| eec d2 c| B3/2- A/2 G A2 D| GGF G2 D|\
 B A2 G2||
